icons/actions/24/archive-remove.svg

<?xml version="1.0"?>
<!-- Created with Inkscape (http://www.inkscape.org/) -->
<svg xmlns:dc="http://purl.org/dc/elements/1.1/" xmlns:cc="http://creativecommons.org/ns#" xmlns:rdf="http://www.w3.org/1999/02/22-rdf-syntax-ns#" xmlns:svg="http://www.w3.org/2000/svg" xmlns="http://www.w3.org/2000/svg" xmlns:sodipodi="http://sodipodi.sourceforge.net/DTD/sodipodi-0.dtd" xmlns:inkscape="http://www.inkscape.org/namespaces/inkscape" width="24" height="24" id="svg3869" version="1.1" inkscape:version="0.91 r13725" sodipodi:docname="archive-remove.svg">
  <defs id="defs3871">
    <style type="text/css" id="current-color-scheme">
      .ColorScheme-Text {
        color:#4d4d4d;
      }
      .ColorScheme-Background {
        color:#eff0f1;
      }
      .ColorScheme-Highlight {
        color:#3daee9;
      }
      .ColorScheme-ViewText {
        color:#31363b;
      }
      .ColorScheme-ViewBackground {
        color:#fcfcfc;
      }
      .ColorScheme-ViewHover {
        color:#93cee9;
      }
      .ColorScheme-ViewFocus{
        color:#3daee9;
      }
      .ColorScheme-ButtonText {
        color:#31363b;
      }
      .ColorScheme-ButtonBackground {
        color:#eff0f1;
      }
      .ColorScheme-ButtonHover {
        color:#93cee9;
      }
      .ColorScheme-ButtonFocus{
        color:#3daee9;
      }
      </style>
  </defs>
  <sodipodi:namedview id="base" pagecolor="#ffffff" bordercolor="#666666" borderopacity="1.0" inkscape:pageopacity="0.0" inkscape:pageshadow="2" inkscape:zoom="22.627416" inkscape:cx="11.061087" inkscape:cy="12.032563" inkscape:document-units="px" inkscape:current-layer="layer1" showgrid="true" fit-margin-top="0" fit-margin-left="0" fit-margin-right="0" fit-margin-bottom="0" inkscape:window-width="1366" inkscape:window-height="709" inkscape:window-x="-4" inkscape:window-y="0" inkscape:window-maximized="1" inkscape:showpageshadow="false" inkscape:object-nodes="true" inkscape:snap-bbox="true">
    <inkscape:grid type="xygrid" id="grid4132"/>
    <sodipodi:guide position="4,18" orientation="18,0" id="guide4138"/>
    <sodipodi:guide position="5,3" orientation="0,18" id="guide4140"/>
    <sodipodi:guide position="20,2.0000174" orientation="-18,0" id="guide4142"/>
    <sodipodi:guide position="2,21" orientation="0,-18" id="guide4144"/>
    <sodipodi:guide position="3,19.000017" orientation="16,0" id="guide4146"/>
    <sodipodi:guide position="2,4" orientation="0,16" id="guide4148"/>
    <sodipodi:guide position="21,20" orientation="-16,0" id="guide4150"/>
    <sodipodi:guide position="2,20" orientation="0,-16" id="guide4152"/>
  </sodipodi:namedview>
  <metadata id="metadata3874">
    <rdf:RDF>
      <cc:Work rdf:about="">
        <dc:format>image/svg+xml</dc:format>
        <dc:type rdf:resource="http://purl.org/dc/dcmitype/StillImage"/>
        <dc:title/>
      </cc:Work>
    </rdf:RDF>
  </metadata>
  <g inkscape:label="Capa 1" inkscape:groupmode="layer" id="layer1" transform="translate(-326,-532.3622)">
    <g transform="translate(327,-497)" id="layer1-5" inkscape:label="Capa 1">
      <path id="rect4139" transform="translate(0,1030.3622)" d="m 4,3 0,16 1,0 7,0 0,-1 -7,0 0,-14 12,0 0,9 1,0 L 18,3 17,3 5,3 4,3 Z" style="fill:currentColor;fill-opacity:1;stroke:none" inkscape:connector-curvature="0" class="ColorScheme-Text"/>
      <rect y="1046.3619" x="13" height="0.9999826" width="5" id="rect4127" style="fill:#da4453;fill-opacity:1;stroke:none"/>
    </g>
  </g>
</svg>

<svg xmlns="http://www.w3.org/2000/svg" viewBox="0 0 24 24">
  <defs id="defs3051">
    <style type="text/css" id="current-color-scheme">
      .ColorScheme-Text {
        color:#4d4d4d;
      }
      </style>
  </defs>
 <path 
     style="fill:currentColor;fill-opacity:1;stroke:none" 
     d="M 4 3 L 4 19 L 5 19 L 12 19 L 12 18 L 5 18 L 5 4 L 17 4 L 17 13 L 18 13 L 18 3 L 17 3 L 5 3 L 4 3 z "
     class="ColorScheme-Text"
     transform="translate(1,1)"
     />
    <path
     style="fill:#da4453;fill-opacity:1;stroke:none"
     d="M 13 16 L 13 17 L 18 17 L 18 16 L 13 16 z "
        transform="translate(1,1)"
     />
</svg>
